X:1
T:Game of Love
M:C|
L:1/8
R:reel
Z:Ken Fleming <ken1gd@flash.net>
D:Touchstone "New Land"
D:Dervish "Playing With Fire"
K:EDor
|: "Em"BEEF GFGB \
| "D"AD (3FED FAA2 \
| "Em"BEEF GABc \
| "D"dcBA "Em"Beef \
| "Em"eEEF GABc |
| "D"dD (3FED FAA2 \
| "G"B2BA GABc \
| "D"dcBA "Em"BEE2 \
:: "Em"Beed egfe \
| "D"defg afdf |
| "Em"eBBA Bgfe \
| "D"dcBA "Em"BEE2 \
| "Em"Beed egfe \
| "D"defg afga \
| "Em(C)"gefg "D"fdef \
| "(Bm)"edBA "Em"BEE2 :|
